admin/src/theme/img/safetyequipment/error_icon.svg

<svg width="14" height="13" viewBox="0 0 14 13" xmlns="http://www.w3.org/2000/svg" xmlns:xlink="http://www.w3.org/1999/xlink">
  <defs>
    <filter x="-10.2%" y="-13.1%" width="120.3%" height="121%" filterUnits="objectBoundingBox" id="a">
      <feMorphology radius=".25" operator="dilate" in="SourceAlpha" result="shadowSpreadOuter1"/>
      <feOffset in="shadowSpreadOuter1" result="shadowOffsetOuter1"/>
      <feColorMatrix values="0 0 0 0 1 0 0 0 0 1 0 0 0 0 1 0 0 0 1 0" in="shadowOffsetOuter1"/>
    </filter>
    <path d="M6 2.995 9.765 9.5h-7.53L6 2.995M6 1 .5 10.5h11L6 1Zm.5 7h-1v1h1V8Zm0-3h-1v2h1V5Z" id="b"/>
  </defs>
  <g fill="none" fill-rule="evenodd">
    <path d="M1 .1h12v12H1z"/>
    <g fill-rule="nonzero" transform="translate(1 .1)">
      <use fill="#000" filter="url(#a)" xlink:href="#b"/>
      <use fill="#EC0E0E" xlink:href="#b"/>
    </g>
  </g>
</svg>

<?xml version="1.0" encoding="UTF-8"?>
<svg width="14px" height="13px" viewBox="0 0 14 13" version="1.1" xmlns="http://www.w3.org/2000/svg" xmlns:xlink="http://www.w3.org/1999/xlink">
    <title>59752C73-4B2D-47FC-AFEC-2A2F4DFD7340</title>
    <defs>
        <path d="M6,2.995 L9.765,9.5 L2.235,9.5 L6,2.995 M6,1 L0.5,10.5 L11.5,10.5 L6,1 Z M6.5,8 L5.5,8 L5.5,9 L6.5,9 L6.5,8 Z M6.5,5 L5.5,5 L5.5,7 L6.5,7 L6.5,5 Z" id="path-1"></path>
        <filter x="-10.2%" y="-13.1%" width="120.3%" height="121.0%" filterUnits="objectBoundingBox" id="filter-2">
            <feMorphology radius="0.25" operator="dilate" in="SourceAlpha" result="shadowSpreadOuter1"></feMorphology>
            <feOffset dx="0" dy="0" in="shadowSpreadOuter1" result="shadowOffsetOuter1"></feOffset>
            <feColorMatrix values="0 0 0 0 1   0 0 0 0 1   0 0 0 0 1  0 0 0 1 0" type="matrix" in="shadowOffsetOuter1"></feColorMatrix>
        </filter>
    </defs>
    <g id="Digitaalinen-väyläkortti-(DVK)" stroke="none" stroke-width="1" fill="none" fill-rule="evenodd">
        <g id="dvk_land_fairway_areas_broken_notification" transform="translate(-940.000000, -705.000000)">
            <g id="turvalaitteet" transform="translate(778.000000, -6.000000)">
                <g id="kardinaali_itä_valaistu" transform="translate(163.000000, 699.000000)">
                    <g id="error_icon" transform="translate(0.000000, 12.100000)">
                        <rect id="Rectangle" x="0" y="0" width="12" height="12"></rect>
                        <g id="Shape" fill-rule="nonzero">
                            <use fill="black" fill-opacity="1" filter="url(#filter-2)" xlink:href="#path-1"></use>
                            <use fill="#EC0E0E" xlink:href="#path-1"></use>
                        </g>
                    </g>
                </g>
            </g>
        </g>
    </g>
</svg>
